X: 36551
T: Seven Men Of Glen Moriston, The
R: slip jig
M: 9/8
K: Adorian
|:A2g fdA c2d|edc B/c/dc BAG|A2g fdA cde|gfd dec BGE:|
|:=F2A ABc BGE|=F2A ABc ~B3|edc d2e A2e|=fed dec BGE:|

